X: 15909
T: Grand Old Man, The
R: barndance
M: 4/4
K: Dmajor
A2 BA F2 A2|B3 A BcdB|A2 BA F2 DE|F2 E2 E2 FG|
A2 BA F2 A2|BcBA BcdB|A2 BA F2 DF|E2 D2 D4:|
d2 d2 d2 ed|c2 A2 BA FA|B2 B2 ef ed|c2 A2 A2 Bc|
d2 d2 d2 ed|c2 A2 BA FA|A2 BA F2 DF|E2 D2 D4:|

